packages/smooth_app/assets/onboarding/eco.svg

<svg width="122" height="192" viewBox="0 0 122 192" fill="none" xmlns="http://www.w3.org/2000/svg">
    <g clip-path="url(#clip0_2948_16914)">
        <path d="M26.3939 36.4737C43.8812 28.2348 64.7718 35.7405 73.013 53.2277L120.71 154.436C123.872 161.146 120.991 169.159 114.28 172.321L75.2238 190.722C68.5129 193.884 60.4987 191.003 57.3365 184.293L9.63989 83.0851C1.3998 65.6003 8.90658 44.7126 26.3962 36.4726L26.3939 36.4737Z" fill="#00A05A"/>
        <path d="M25.9618 11.5656L7.46411 20.2805L28.3576 64.6148L46.8553 55.8998L25.9618 11.5656Z" fill="#00A05A"/>
        <path d="M21.0761 0.317348L1.8969 9.35339C0.246288 10.1311 -0.461286 12.0994 0.316489 13.7497L2.72496 18.8603C3.50273 20.5107 5.47133 21.2182 7.12194 20.4405L26.3012 11.4045C27.9518 10.6268 28.6594 8.65849 27.8816 7.00811L25.4731 1.89753C24.6953 0.247157 22.7268 -0.460316 21.0761 0.317348Z" fill="#B3B3B3"/>
        <path d="M63.707 66.2943L25.6396 84.2293C23.6283 85.1769 22.7661 87.5753 23.7138 89.5864L53.852 153.537C54.7998 155.548 57.1986 156.41 59.2099 155.463L97.2773 137.528C99.2886 136.58 100.151 134.182 99.2031 132.171L69.0649 68.2198C68.1171 66.2088 65.7184 65.3467 63.707 66.2943Z" fill="white"/>
        <path d="M37.1354 97.5928C36.7456 97.5928 36.3715 97.3731 36.191 96.9991C35.9399 96.4786 36.1596 95.8535 36.6828 95.6024L65.523 81.7689C66.0436 81.5178 66.6688 81.7375 66.9199 82.2606C67.1711 82.7811 66.9513 83.4062 66.4281 83.6573L37.5879 97.4908C37.4414 97.5614 37.2871 97.5928 37.1354 97.5928Z" fill="#999999"/>
        <path d="M40.8917 105.782C40.502 105.782 40.1279 105.562 39.9474 105.188C39.6963 104.668 39.916 104.043 40.4392 103.792L69.2794 89.9581C69.8026 89.707 70.4251 89.9267 70.6763 90.4498C70.9274 90.9703 70.7077 91.5954 70.1845 91.8465L41.3443 105.68C41.1978 105.751 41.0434 105.782 40.8917 105.782Z" fill="#999999"/>
        <path d="M44.8495 114.029C44.4597 114.029 44.0856 113.809 43.9051 113.435C43.654 112.915 43.8738 112.289 44.3969 112.038L73.2371 98.2049C73.7603 97.9538 74.3829 98.1735 74.634 98.6967C74.8852 99.2171 74.6654 99.8422 74.1422 100.093L45.302 113.927C45.1555 113.997 45.0012 114.029 44.8495 114.029Z" fill="#999999"/>
        <g style="mix-blend-mode:multiply" opacity="0.3">
            <g style="mix-blend-mode:multiply" opacity="0.3">
                <path d="M79.2905 83.0242C95.4756 83.0242 108.596 69.9054 108.596 53.7226C108.596 37.5397 95.4756 24.4209 79.2905 24.4209C63.1053 24.4209 49.9846 37.5397 49.9846 53.7226C49.9846 69.9054 63.1053 83.0242 79.2905 83.0242Z" fill="black"/>
            </g>
            <g style="mix-blend-mode:multiply" opacity="0.3">
                <path d="M80.4231 74.1499C84.054 69.4734 94.269 74.6286 90.1778 64.1194C86.0891 53.6103 100.259 52.5431 104.623 54.5545C105.915 55.1482 107.181 56.0767 108.384 57.2354C108.523 56.0819 108.596 54.9102 108.596 53.7201C108.596 51.9703 108.442 50.2572 108.149 48.5937C99.3491 45.8579 97.6802 38.7437 93.1024 41.6129C88.4225 44.5475 82.0293 38.537 82.5734 34.2528C82.9867 31.0017 84.9722 26.7567 83.9938 24.7951C82.4635 24.5492 80.8914 24.4185 79.2904 24.4185C75.4869 24.4185 71.8561 25.143 68.5208 26.4612C70.4383 32.3932 72.0052 35.4664 67.2129 39.0784C61.3166 43.5248 56.6368 40.5484 56.6368 47.299C56.6368 54.0497 61.0838 56.8587 56.6368 61.0697C55.3759 62.2624 53.5736 62.9869 51.6064 63.3531C52.5299 66.0052 53.8221 68.4847 55.423 70.7262C61.8503 65.7567 69.3605 73.1168 71.4061 76.8125C72.2955 78.4158 72.1203 80.2127 71.5029 81.9756C73.9828 82.6582 76.5934 83.0244 79.2904 83.0244C79.8921 83.0244 80.4885 83.0035 81.0823 82.9695C79.3611 79.4019 78.8379 76.1927 80.4231 74.1499ZM74.3412 69.8997C70.9405 70.6321 70.2054 61.1953 68.131 56.9712C66.0566 52.7471 63.1975 49.6556 65.6433 47.0532C68.0866 44.4533 70.5664 47.0532 74.7388 43.7471C79.2015 40.211 83.1489 43.8701 83.8892 47.2362C84.6295 50.6024 81.8069 54.2563 81.1948 56.0505C80.7867 57.2467 80.7178 59.2057 80.9882 61.9276C81.3936 66.0104 77.7418 69.1674 74.3412 69.8997Z" fill="black"/>
            </g>
            <g style="mix-blend-mode:multiply" opacity="0.3">
                <path d="M82.5733 34.2553C82.0292 38.5395 88.4225 44.55 93.1023 41.6154C97.6775 38.7462 99.3464 45.8604 108.149 48.5962C105.993 36.3817 96.2701 26.7776 83.9937 24.7976C84.9695 26.7566 82.9866 31.0042 82.5733 34.2553Z" fill="black"/>
            </g>
            <g style="mix-blend-mode:multiply" opacity="0.3">
                <path d="M80.9883 61.9277C80.718 59.2058 80.7869 57.2468 81.195 56.0506C81.8071 54.2564 84.6296 50.6025 83.8893 47.2363C83.149 43.8701 79.2016 40.211 74.7389 43.7472C70.5666 47.0532 68.0867 44.4534 65.6435 47.0532C63.2002 49.6531 66.0594 52.7472 68.1312 56.9713C70.2056 61.1953 70.9407 70.6321 74.3413 69.8998C77.742 69.1674 81.3938 66.0105 80.9883 61.9277Z" fill="black"/>
            </g>
            <g style="mix-blend-mode:multiply" opacity="0.3">
                <path d="M71.4089 76.8152C69.3633 73.1221 61.8504 65.7594 55.4258 70.7289C59.2842 76.1325 64.9346 80.1683 71.5057 81.9756C72.123 80.2153 72.2983 78.4185 71.4089 76.8125V76.8152Z" fill="black"/>
            </g>
            <g style="mix-blend-mode:multiply" opacity="0.3">
                <path d="M56.6395 47.3017C56.6395 40.5511 61.3194 43.5249 67.2156 39.0811C72.0079 35.4691 70.441 32.3959 68.5235 26.4639C57.6676 30.7559 49.9873 41.3435 49.9873 53.7228C49.9873 57.0968 50.5602 60.3374 51.6092 63.3558C53.5763 62.9896 55.3787 62.2677 56.6395 61.0724C61.0865 56.8614 56.6395 54.0524 56.6395 47.3017Z" fill="black"/>
            </g>
            <g style="mix-blend-mode:multiply" opacity="0.3">
                <path d="M90.1803 64.1194C94.269 74.6286 84.0565 69.4734 80.4257 74.15C78.8404 76.1901 79.3636 79.3993 81.0849 82.9695C95.263 82.1142 106.721 71.1813 108.387 57.238C107.184 56.0793 105.918 55.1508 104.625 54.5571C100.259 52.5458 86.0917 53.6129 90.1803 64.1221V64.1194Z" fill="black"/>
            </g>
        </g>
        <path d="M80.86 81.4549C97.0452 81.4549 110.166 68.3361 110.166 52.1532C110.166 35.9704 97.0452 22.8516 80.86 22.8516C64.6749 22.8516 51.5542 35.9704 51.5542 52.1532C51.5542 68.3361 64.6749 81.4549 80.86 81.4549Z" fill="#78E6FF"/>
        <path d="M81.9927 72.5806C85.6236 67.904 95.8386 73.0592 91.7474 62.5501C87.6587 52.0409 101.829 50.9738 106.192 52.9851C107.485 53.5789 108.751 54.5074 109.954 55.666C110.093 54.5126 110.166 53.3408 110.166 52.1508C110.166 50.401 110.012 48.6878 109.719 47.0244C100.919 44.2885 99.2497 37.1743 94.6719 40.0435C89.9921 42.9782 83.5989 36.9677 84.143 32.6835C84.5563 29.4324 86.5417 25.1874 85.5634 23.2258C84.0331 22.9799 82.4609 22.8491 80.86 22.8491C77.0565 22.8491 73.4257 23.5736 70.0904 24.8918C72.0078 30.8238 73.5748 33.8971 68.7824 37.5091C62.8862 41.9555 58.2064 38.979 58.2064 45.7297C58.2064 52.4803 62.6534 55.2894 58.2064 59.5004C56.9455 60.6931 55.1432 61.4176 53.176 61.7837C54.0994 64.4359 55.3917 66.9154 56.9926 69.1569C63.4199 64.1874 70.9301 71.5475 72.9757 75.2432C73.8651 76.8465 73.6899 78.6434 73.0725 80.4062C75.5524 81.0889 78.163 81.4551 80.86 81.4551C81.4617 81.4551 82.0581 81.4341 82.6519 81.4001C80.9306 77.8326 80.4075 74.6233 81.9927 72.5806ZM75.9107 68.3304C72.5101 69.0627 71.775 59.6259 69.7006 55.4019C67.6262 51.1778 64.767 48.0863 67.2129 45.4838C69.6561 42.884 72.136 45.4838 76.3084 42.1778C80.7711 38.6416 84.7185 42.3007 85.4588 45.6669C86.1991 49.0331 83.3765 52.687 82.7644 54.4812C82.3563 55.6774 82.2874 57.6364 82.5577 60.3583C82.9632 64.4411 79.3114 67.598 75.9107 68.3304Z" fill="#78E6FF"/>
        <path d="M84.1429 32.686C83.5988 36.9702 89.992 42.9807 94.6719 40.0461C99.2471 37.1768 100.916 44.291 109.718 47.0269C107.563 34.8124 97.8397 25.2082 85.5633 23.2283C86.5391 25.1873 84.5562 29.4349 84.1429 32.686Z" fill="#009664"/>
        <path d="M82.5576 60.3583C82.2873 57.6365 82.3562 55.6774 82.7643 54.4813C83.3764 52.687 86.199 49.0332 85.4587 45.667C84.7184 42.3008 80.771 38.6417 76.3083 42.1779C72.1359 45.4839 69.6561 42.8841 67.2128 45.4839C64.7696 48.0837 67.6287 51.1779 69.7005 55.4019C71.7749 59.626 72.51 69.0628 75.9107 68.3304C79.3113 67.5981 82.9631 64.4412 82.5576 60.3583Z" fill="#009664"/>
        <path d="M72.9782 75.2458C70.9326 71.5527 63.4197 64.19 56.9951 69.1595C60.8536 74.5632 66.5039 78.5989 73.075 80.4062C73.6924 78.646 73.8676 76.8491 72.9782 75.2432V75.2458Z" fill="#009664"/>
        <path d="M58.2091 45.7324C58.2091 38.9817 62.8889 41.9556 68.7852 37.5118C73.5775 33.8998 72.0106 30.8265 70.0931 24.8945C59.2371 29.1866 51.5569 39.7742 51.5569 52.1535C51.5569 55.5275 52.1298 58.7681 53.1787 61.7864C55.1459 61.4202 56.9482 60.6984 58.2091 59.5031C62.6561 55.2921 58.2091 52.483 58.2091 45.7324Z" fill="#009664"/>
        <path d="M91.7499 62.5501C95.8385 73.0593 85.6261 67.9041 81.9952 72.5806C80.41 74.6207 80.9332 77.83 82.6544 81.4002C96.8326 80.5449 108.29 69.612 109.957 55.6687C108.753 54.51 107.487 53.5815 106.195 52.9878C101.829 50.9764 87.6613 52.0436 91.7499 62.5527V62.5501Z" fill="#009664"/>
        <g style="mix-blend-mode:multiply" opacity="0.2">
            <g style="mix-blend-mode:multiply" opacity="0.2">
                <path d="M42.8589 181.036C60.3487 181.036 74.5269 166.859 74.5269 149.372C74.5269 131.885 60.3487 117.709 42.8589 117.709C25.3692 117.709 11.1909 131.885 11.1909 149.372C11.1909 166.859 25.3692 181.036 42.8589 181.036Z" fill="black"/>
            </g>
        </g>
        <path d="M44.9517 182.082C62.4414 182.082 76.6197 167.906 76.6197 150.418C76.6197 132.931 62.4414 118.755 44.9517 118.755C27.4619 118.755 13.2837 132.931 13.2837 150.418C13.2837 167.906 27.4619 182.082 44.9517 182.082Z" fill="white"/>
        <path d="M32.3247 160.535C31.6655 160.535 31.1318 160.002 31.1318 159.343V141.492C31.1318 140.833 31.6655 140.299 32.3247 140.299C32.9839 140.299 33.5175 140.833 33.5175 141.492V159.343C33.5175 160.002 32.9839 160.535 32.3247 160.535Z" fill="black"/>
        <path d="M36.5337 160.535C35.8745 160.535 35.3408 160.002 35.3408 159.343V141.492C35.3408 140.833 35.8745 140.299 36.5337 140.299C37.1929 140.299 37.7265 140.833 37.7265 141.492V159.343C37.7265 160.002 37.1929 160.535 36.5337 160.535Z" fill="black"/>
        <path d="M40.7427 160.535C40.0834 160.535 39.5498 160.002 39.5498 159.343V141.492C39.5498 140.833 40.0834 140.299 40.7427 140.299C41.4019 140.299 41.9355 140.833 41.9355 141.492V159.343C41.9355 160.002 41.4019 160.535 40.7427 160.535Z" fill="black"/>
        <path d="M44.9516 160.535C44.2924 160.535 43.7588 160.002 43.7588 159.343V141.492C43.7588 140.833 44.2924 140.299 44.9516 140.299C45.6108 140.299 46.1445 140.833 46.1445 141.492V159.343C46.1445 160.002 45.6108 160.535 44.9516 160.535Z" fill="black"/>
        <path d="M49.1606 160.535C48.5014 160.535 47.9678 160.002 47.9678 159.343V141.492C47.9678 140.833 48.5014 140.299 49.1606 140.299C49.8198 140.299 50.3535 140.833 50.3535 141.492V159.343C50.3535 160.002 49.8198 160.535 49.1606 160.535Z" fill="black"/>
        <path d="M53.3696 160.535C52.7104 160.535 52.1768 160.002 52.1768 159.343V141.492C52.1768 140.833 52.7104 140.299 53.3696 140.299C54.0288 140.299 54.5625 140.833 54.5625 141.492V159.343C54.5625 160.002 54.0288 160.535 53.3696 160.535Z" fill="black"/>
        <path d="M57.5786 160.535C56.9194 160.535 56.3857 160.002 56.3857 159.343V141.492C56.3857 140.833 56.9194 140.299 57.5786 140.299C58.2378 140.299 58.7714 140.833 58.7714 141.492V159.343C58.7714 160.002 58.2378 160.535 57.5786 160.535Z" fill="black"/>
        <path d="M64.1785 142.064H62.609V137.304H57.8455V135.735H64.1785V142.064Z" fill="black"/>
        <path d="M27.2944 142.064H25.7249V135.735H32.0553V137.304H27.2944V142.064Z" fill="black"/>
        <path d="M32.0553 165.102H25.7249V158.772H27.2944V163.533H32.0553V165.102Z" fill="black"/>
        <path d="M64.1785 165.102H57.8455V163.533H62.609V158.772H64.1785V165.102Z" fill="black"/>
        <g style="mix-blend-mode:multiply" opacity="0.3">
            <g style="mix-blend-mode:multiply" opacity="0.3">
                <path d="M106.463 20.0261C104.993 18.5562 103.039 17.7454 100.959 17.7454C98.8793 17.7454 96.9253 18.5562 95.4551 20.0261L94.6599 20.8212L93.8647 20.0261C92.3945 18.5562 90.4378 17.7454 88.3608 17.7454C86.2838 17.7454 84.3271 18.5562 82.857 20.0261C81.3869 21.496 80.5759 23.4524 80.5759 25.5291C80.5759 27.6059 81.3869 29.5623 82.857 31.0322L94.312 42.4855C94.4088 42.5823 94.5343 42.6294 94.6625 42.6294C94.7907 42.6294 94.9163 42.5823 95.013 42.4855L106.468 31.0322C107.938 29.5623 108.749 27.6059 108.749 25.5291C108.749 23.4524 107.938 21.496 106.468 20.0261H106.463Z" fill="black"/>
            </g>
        </g>
        <path d="M107.509 18.98C106.039 17.51 104.085 16.6992 102.005 16.6992C99.9257 16.6992 97.9716 17.51 96.5015 18.98L95.7063 19.7751L94.911 18.98C93.4409 17.51 91.4842 16.6992 89.4072 16.6992C87.3302 16.6992 85.3735 17.51 83.9034 18.98C82.4332 20.4499 81.6223 22.4063 81.6223 24.483C81.6223 26.5597 82.4332 28.5161 83.9034 29.9861L95.3584 41.4394C95.4552 41.5362 95.5807 41.5833 95.7089 41.5833C95.8371 41.5833 95.9626 41.5362 96.0594 41.4394L107.514 29.9861C108.985 28.5161 109.795 26.5597 109.795 24.483C109.795 22.4063 108.985 20.4499 107.514 18.98H107.509Z" fill="#FF6E78"/>
    </g>
    <defs>
        <clipPath id="clip0_2948_16914">
            <rect width="122" height="192" fill="white"/>
        </clipPath>
    </defs>
</svg>

<svg width="122" height="192" fill="none" xmlns="http://www.w3.org/2000/svg"><g clip-path="url(#a)"><path d="M26.394 36.474c17.487-8.24 38.378-.733 46.619 16.754l47.697 101.208c3.162 6.71.281 14.723-6.43 17.885l-39.056 18.401c-6.711 3.162-14.725.281-17.888-6.429L9.64 83.085C1.4 65.6 8.907 44.713 26.396 36.473h-.002Z" fill="#00A05A"/><path d="M25.962 11.566 7.464 20.28l20.894 44.335L46.855 55.9 25.962 11.566Z" fill="#00A05A"/><path d="M21.076.317 1.896 9.353a3.303 3.303 0 0 0-1.58 4.397l2.409 5.11a3.304 3.304 0 0 0 4.397 1.58l19.18-9.036a3.303 3.303 0 0 0 1.58-4.396l-2.409-5.11a3.304 3.304 0 0 0-4.397-1.58Z" fill="#B3B3B3"/><path d="M63.707 66.294 25.64 84.23a4.025 4.025 0 0 0-1.926 5.357l30.138 63.951a4.027 4.027 0 0 0 5.358 1.926l38.067-17.935a4.025 4.025 0 0 0 1.926-5.357L69.065 68.22a4.026 4.026 0 0 0-5.358-1.926Z" fill="#fff"/><path d="M37.135 97.593a1.045 1.045 0 0 1-.453-1.99l28.841-13.834a1.045 1.045 0 0 1 1.397.492c.251.52.031 1.145-.492 1.396l-28.84 13.834c-.147.07-.3.102-.453.102ZM40.892 105.782c-.39 0-.764-.22-.945-.594a1.045 1.045 0 0 1 .492-1.396l28.84-13.834a1.045 1.045 0 0 1 1.397.492c.251.52.032 1.145-.492 1.397l-28.84 13.833c-.146.071-.3.102-.452.102ZM44.85 114.029a1.046 1.046 0 0 1-.453-1.991l28.84-13.833a1.045 1.045 0 0 1 1.397.492c.251.52.031 1.145-.492 1.396l-28.84 13.834c-.146.07-.3.102-.453.102Z" fill="#999"/><g style="mix-blend-mode:multiply" opacity=".3"><path d="M79.29 83.024c16.186 0 29.306-13.119 29.306-29.301 0-16.183-13.12-29.302-29.306-29.302-16.185 0-29.305 13.119-29.305 29.302 0 16.182 13.12 29.301 29.305 29.301Z" fill="#000" style="mix-blend-mode:multiply" opacity=".3"/><path d="M80.423 74.15c3.631-4.677 13.846.479 9.755-10.03-4.089-10.51 10.081-11.577 14.445-9.566 1.292.594 2.558 1.523 3.761 2.681a29.536 29.536 0 0 0-.235-8.642c-8.8-2.735-10.469-9.85-15.047-6.98-4.68 2.934-11.073-3.076-10.529-7.36.414-3.251 2.4-7.496 1.42-9.458a29.64 29.64 0 0 0-4.703-.377c-3.803 0-7.434.725-10.77 2.043 1.918 5.932 3.485 9.005-1.307 12.617-5.896 4.447-10.576 1.47-10.576 8.221 0 6.75 4.447 9.56 0 13.77-1.261 1.193-3.063 1.918-5.03 2.284a29.22 29.22 0 0 0 3.816 7.373c6.427-4.97 13.938 2.39 15.983 6.087.89 1.603.714 3.4.097 5.163a29.303 29.303 0 0 0 9.58.993c-1.722-3.567-2.245-6.776-.66-8.82Zm-6.082-4.25c-3.4.732-4.136-8.705-6.21-12.929s-4.934-7.315-2.488-9.918c2.444-2.6 4.923 0 9.096-3.306 4.462-3.536 8.41.123 9.15 3.49.74 3.365-2.082 7.02-2.694 8.813-.408 1.197-.477 3.156-.207 5.878.406 4.082-3.246 7.24-6.647 7.972Z" fill="#000" style="mix-blend-mode:multiply" opacity=".3"/><path d="M82.573 34.255c-.544 4.284 5.85 10.295 10.53 7.36 4.575-2.869 6.243 4.245 15.046 6.981-2.156-12.214-11.879-21.818-24.155-23.798.975 1.959-1.007 6.206-1.42 9.457ZM80.988 61.928c-.27-2.722-.201-4.681.207-5.877.612-1.795 3.435-5.449 2.694-8.815-.74-3.366-4.687-7.025-9.15-3.489-4.172 3.306-6.652.706-9.096 3.306-2.443 2.6.416 5.694 2.488 9.918 2.075 4.224 2.81 13.661 6.21 12.929 3.401-.733 7.053-3.89 6.647-7.972ZM71.409 76.815c-2.046-3.693-9.559-11.056-15.983-6.086a29.354 29.354 0 0 0 16.08 11.247c.617-1.76.792-3.558-.097-5.163v.002ZM56.64 47.302c0-6.75 4.68-3.777 10.576-8.22 4.792-3.613 3.225-6.686 1.308-12.618-10.856 4.292-18.537 14.88-18.537 27.259 0 3.374.573 6.614 1.622 9.633 1.967-.366 3.77-1.088 5.03-2.284 4.447-4.21 0-7.02 0-13.77ZM90.18 64.12c4.089 10.509-6.124 5.353-9.754 10.03-1.586 2.04-1.062 5.25.659 8.82 14.178-.856 25.636-11.789 27.302-25.732-1.203-1.159-2.469-2.087-3.762-2.68-4.366-2.012-18.533-.945-14.445 9.564v-.003Z" fill="#000" style="mix-blend-mode:multiply" opacity=".3"/></g><path d="M80.86 81.455c16.185 0 29.306-13.119 29.306-29.302S97.046 22.852 80.86 22.852c-16.185 0-29.306 13.118-29.306 29.301s13.12 29.302 29.306 29.302Z" fill="#78E6FF"/><path d="M81.993 72.58c3.63-4.676 13.846.48 9.754-10.03-4.088-10.51 10.082-11.576 14.445-9.565 1.293.594 2.559 1.522 3.762 2.681a29.535 29.535 0 0 0-.235-8.642c-8.8-2.736-10.47-9.85-15.047-6.98-4.68 2.934-11.073-3.076-10.529-7.36.413-3.252 2.399-7.497 1.42-9.458a29.641 29.641 0 0 0-4.703-.377c-3.803 0-7.434.725-10.77 2.043 1.918 5.932 3.485 9.005-1.308 12.617-5.896 4.447-10.576 1.47-10.576 8.22 0 6.751 4.447 9.56 0 13.771-1.26 1.193-3.063 1.918-5.03 2.284a29.215 29.215 0 0 0 3.817 7.373c6.427-4.97 13.937 2.39 15.983 6.086.89 1.604.714 3.4.097 5.163a29.299 29.299 0 0 0 9.579.994c-1.721-3.567-2.245-6.777-.66-8.82Zm-6.082-4.25c-3.4.733-4.136-8.704-6.21-12.928-2.075-4.224-4.934-7.316-2.488-9.918 2.443-2.6 4.923 0 9.095-3.306 4.463-3.536 8.41.123 9.15 3.489.741 3.366-2.082 7.02-2.694 8.814-.408 1.196-.477 3.155-.206 5.877.405 4.083-3.247 7.24-6.647 7.972Z" fill="#78E6FF"/><path d="M84.143 32.686c-.544 4.284 5.849 10.295 10.529 7.36 4.575-2.87 6.244 4.245 15.046 6.98-2.155-12.214-11.878-21.818-24.155-23.798.976 1.96-1.007 6.207-1.42 9.458ZM82.558 60.358c-.27-2.721-.202-4.68.206-5.877.612-1.794 3.435-5.448 2.695-8.814-.74-3.366-4.688-7.025-9.15-3.49-4.173 3.307-6.653.707-9.096 3.307-2.443 2.6.416 5.694 2.488 9.918 2.074 4.224 2.809 13.66 6.21 12.928 3.4-.732 7.052-3.889 6.647-7.972ZM72.978 75.246c-2.045-3.693-9.558-11.056-15.983-6.087a29.354 29.354 0 0 0 16.08 11.247c.617-1.76.793-3.557-.097-5.163v.003ZM58.21 45.732c0-6.75 4.679-3.776 10.575-8.22 4.793-3.612 3.226-6.686 1.308-12.617-10.856 4.292-18.536 14.88-18.536 27.259 0 3.373.573 6.614 1.622 9.632 1.967-.366 3.77-1.088 5.03-2.283 4.447-4.21 0-7.02 0-13.77ZM91.75 62.55c4.088 10.51-6.124 5.354-9.755 10.03-1.585 2.04-1.062 5.25.66 8.82 14.178-.855 25.635-11.788 27.302-25.731-1.204-1.159-2.47-2.087-3.762-2.681-4.366-2.012-18.534-.944-14.445 9.565v-.003Z" fill="#009664"/><path d="M42.859 181.036c17.49 0 31.668-14.177 31.668-31.664 0-17.487-14.178-31.663-31.668-31.663S11.19 131.885 11.19 149.372c0 17.487 14.178 31.664 31.668 31.664Z" fill="#000" style="mix-blend-mode:multiply" opacity=".2"/><path d="M44.952 182.082c17.49 0 31.668-14.176 31.668-31.664 0-17.487-14.179-31.663-31.668-31.663-17.49 0-31.668 14.176-31.668 31.663 0 17.488 14.178 31.664 31.668 31.664Z" fill="#fff"/><path d="M32.325 160.535c-.66 0-1.193-.533-1.193-1.192v-17.851a1.193 1.193 0 1 1 2.385 0v17.851c0 .659-.533 1.192-1.192 1.192ZM36.534 160.535c-.66 0-1.193-.533-1.193-1.192v-17.851a1.193 1.193 0 1 1 2.386 0v17.851c0 .659-.534 1.192-1.193 1.192ZM40.743 160.535c-.66 0-1.193-.533-1.193-1.192v-17.851a1.193 1.193 0 1 1 2.386 0v17.851c0 .659-.534 1.192-1.193 1.192ZM44.952 160.535c-.66 0-1.193-.533-1.193-1.192v-17.851a1.193 1.193 0 1 1 2.386 0v17.851c0 .659-.534 1.192-1.193 1.192ZM49.16 160.535c-.659 0-1.192-.533-1.192-1.192v-17.851a1.193 1.193 0 1 1 2.385 0v17.851c0 .659-.533 1.192-1.192 1.192ZM53.37 160.535c-.66 0-1.193-.533-1.193-1.192v-17.851a1.193 1.193 0 1 1 2.386 0v17.851c0 .659-.534 1.192-1.193 1.192ZM57.579 160.535c-.66 0-1.193-.533-1.193-1.192v-17.851a1.193 1.193 0 1 1 2.385 0v17.851c0 .659-.533 1.192-1.192 1.192ZM64.178 142.064H62.61v-4.76h-4.764v-1.569h6.334v6.329ZM27.294 142.064h-1.57v-6.329h6.331v1.569h-4.76v4.76ZM32.055 165.102h-6.33v-6.33h1.57v4.761h4.76v1.569ZM64.178 165.102h-6.332v-1.569h4.763v-4.761h1.57v6.33Z" fill="#000"/><path d="M106.463 20.026a7.733 7.733 0 0 0-5.504-2.28c-2.08 0-4.034.81-5.504 2.28l-.795.795-.795-.795a7.738 7.738 0 0 0-5.504-2.28c-2.077 0-4.034.81-5.504 2.28a7.736 7.736 0 0 0-2.281 5.503c0 2.077.81 4.033 2.281 5.503l11.455 11.454a.49.49 0 0 0 .35.143.49.49 0 0 0 .351-.143l11.455-11.454a7.736 7.736 0 0 0 2.281-5.503 7.736 7.736 0 0 0-2.281-5.503h-.005Z" fill="#000" style="mix-blend-mode:multiply" opacity=".3"/><path d="M107.509 18.98a7.733 7.733 0 0 0-5.504-2.28c-2.08 0-4.033.81-5.504 2.28l-.795.795-.795-.795a7.738 7.738 0 0 0-5.504-2.28c-2.077 0-4.033.81-5.504 2.28a7.735 7.735 0 0 0-2.28 5.503c0 2.077.81 4.033 2.28 5.503L95.358 41.44a.49.49 0 0 0 .35.144.49.49 0 0 0 .351-.144l11.455-11.453a7.732 7.732 0 0 0 2.281-5.503c0-2.077-.81-4.033-2.281-5.503h-.005Z" fill="#FF6E78"/></g><defs><clipPath id="a"><path fill="#fff" d="M0 0h122v192H0z"/></clipPath></defs></svg>
